!!!OTL: De klenge Mennchen, S. 28f
!!!id: L0021
**kern
*clefG2
*k[f#c#]
*D:
{4d
=1
4a
8r
8a
8a
8a
=2
2f#
4d
=3
2a
4b
=4
4a}
4r
=5
{4d
=6
4.a
8a
8a
8a
=7
2f#
4d
=8
2a
4b
=9
4a}
4r
=10
{4a
=11
4dd
4dd
4dd
=12
4b
4g
4g
=13
4b
8b
8cc#
8dd
8b
=14
4a
4f#
4f#
=15
4g
4e
4a
=16
4d}
4r
==
*-
!!!minrhy: 8
!!!meters: 3/4 ]  ZZ[3
!!!cut: De klenge Mennchen, S. 28f
!! PR[32] 2K[5] 2G[8] 3K[0] 3G[3] 4A[5] 4Ü[0] 5A[11] 6K[0] 6G[0]
!! 7K[0] 7G[0] 8A[0] MEHR[0] SI[32] ABS[38] SR[13] SP[18]
!! ST[14] 2k[0] 2g[8] 3k[16] 3g[8] 4d[0] 4ü[0] 5d[5] 6k[0] 6g[0]
!! 7k[0] 7g[0] 8d[0] mehr[0] si[37] dm[-5] sr[8] sp[29]
!! 1F[26] 2F[63] 3F[9] 4F[0] LF[0] 2P[2] 3P[0] 4P[0] TRI[0] DF[4] AB[43]
!! TF[0] U3K[0] U3[0] U4[0] U4Ü[0] U5[0] U6K[0] U6[0] U7K[0] U7[0]
!! N1[13] N2K[0] N2[3] N3K[0] N3[10] N4[8] N4Ü[0] N5[38] N6K[0] N6[15]
!!!n7k: 0] N7[3] O1[10] O2K[0] O2[0] O3K[0] O3[0] HÖ[0
!!!reg: Luxemburg
!!!trd: Die Luxemburger Volkslieder &auml;lterer Zeit, Luxemburg 1904 posth.
!!!rhy1: X_  X_0XXX  X__X_  X__X_  X_0_
!!!rhy2: X_  X_.XXX  X__X_  X__X_  X_0_
!!!key: L0021  08  D 3/4 ]  ZZ[3
!!!mod: HEPTATONIK IONISCH]  AMBITUS[8
!!!kad: 551
!!!akz: 5355_5355_+166541_
!!!fot: 'a__av_b__
!!!for: 'a__av_b__
!!!fok: '~a_~a_Md_
!! PHRAS[AUFTAKTIG]
!!!fkt: ??, Liebeslied
!!!bem: 2. unbekanntere? Weise
!! FONTAINE, Ed.:
!! PR[44] 2K[5] 2G[5] 3K[2] 3G[5] 4A[5] 4Ü[0] 5A[2] 6K[0] 6G[0]
!! 7K[0] 7G[0] 8A[2] MEHR[0] SI[26] ABS[43] SR[9] SP[16]
!! ST[8] 2k[2] 2g[7] 3k[9] 3g[7] 4d[5] 4ü[0] 5d[0] 6k[0] 6g[0]
!! 7k[0] 7g[0] 8d[0] mehr[0] si[30] dm[-4] sr[9] sp[21]
!! 1F[55] 2F[45] 3F[0] 4F[0] LF[0] 2P[0] 3P[0] 4P[0] TRI[0] DF[2] AB[44]
!! TF[0] U3K[0] U3[0] U4[0] U4Ü[0] U5[5] U6K[0] U6[0] U7K[0] U7[0]
!! N1[25] N2K[0] N2[23] N3K[0] N3[23] N4[9] N4Ü[0] N5[11] N6K[0] N6[0]
!!!n7k: 0] N7[3] O1[10] O2K[0] O2[0] O3K[0] O3[0] HÖ[0
!!!RNB: symbol: &auml;      = a umlaut  (UTF-8: Å„)
